public/avatar/hat/25.svg

<svg xmlns:xlink="http://www.w3.org/1999/xlink" height="92.9" width="100.7" xmlns="http://www.w3.org/2000/svg"><g transform="translate(38.65 49.75)"><use height="37.85" transform="translate(-11.45 -29.75)" width="22.55" xlink:href="#a"/><use height="20.65" transform="translate(-9.75 -49.75)" width="20.35" xlink:href="#b"/></g><defs><g id="a"><path d="M4.55-5.3 6.4-1.25Q-.7 1.8-7.85 1.5l2.45-4.45q6.15.8 9.95-2.35m3.35 7L10.85 7Q.1 8.75-11.2 6.9l1.35-2.05Q-.6 5.25 7.9 1.7M-3.5-6.8l4-7.3 2.75 5.75Q-.9-5.9-3.5-6.8" fill="#fc0" fill-rule="evenodd" transform="translate(11.45 29.75)"/><path d="m3.25-8.35 1.3 3.05Q.75-2.15-5.4-2.95l1.9-3.85q2.6.9 6.75-1.55m3.15 7.1L7.9 1.7Q-.6 5.25-9.85 4.85l2-3.35Q-.7 1.8 6.4-1.25" fill="#f90" fill-rule="evenodd" transform="translate(11.45 29.75)"/><path d="m14.7 21.4 1.3 3.05 1.85 4.05 1.5 2.95 2.95 5.3Q11.55 38.5.25 36.65L1.6 34.6l2-3.35 2.45-4.45 1.9-3.85 4-7.3 2.75 5.75" fill="none" stroke="#630" stroke-linecap="round" stroke-linejoin="round" stroke-width=".5"/><path d="M11.95 15.65V.25" fill="none" stroke="#999" stroke-linecap="round" stroke-linejoin="round" stroke-width=".5"/></g><g id="b" transform="translate(10.15 10.2)"><use height="20.65" transform="translate(-10.15 -10.2)" width="20.35" xlink:href="#c"/><use height="12.3" transform="translate(-6.2 -6.05)" width="12.3" xlink:href="#d"/><use height="8.7" transform="translate(-5.25 -4.5)" width="10.4" xlink:href="#e"/></g><g id="c" fill-opacity=".624" fill-rule="evenodd"><path d="m3.1 9.7-.4.15-2.2.3H.05l-2.15-.2Q-6.3.1-2.1-9.95-11.35-.8-2.4 9.9l-.55-.15q-2.4-.7-4.25-2.55-2.95-3-2.95-7.2 0-4.3 2.95-7.25T.05-10.2l2.05.2q8.9 7.85 1 19.7" fill="#5176ad" transform="translate(10.15 10.2)"/><path d="m-2.1 9.95.2.5-.5-.55q-8.95-10.7.3-19.85Q-6.3.1-2.1 9.95" fill="#fff" transform="translate(10.15 10.2)"/><path d="M2.1-10q2.9.55 5.15 2.75Q10.2-4.3 10.2 0q0 4.2-2.95 7.2Q5.4 9 3.1 9.7 11-2.15 2.1-10" fill="#35506f" transform="translate(10.15 10.2)"/></g><g id="g" fill-rule="evenodd"><path d="M3.65 3.8H3.6Q1.55 3.8.1 2.7V1.15q-.65 1.2-1.45 1.75L-3.7 4.1h-.05Q-3.9 1.85-2 .4l1-1q-2.7.05-4.05-1.05l-.05-.1-.05-.05h-.05l.45-.35 2.95.6.2-.4L-.2-4.6q.9 2 .3 4l1.1-1.3 4-.1-.6.4Q3.15-.7 1.5 0l.6.85L3.65 3.8" fill="#ff0" transform="translate(5.2 4.6)"/><path d="M5.2-2Q4.7-.55 3.9-.2L2.5.15 4.55 3.4l-.9.4L2.1.85 1.5 0q1.65-.7 3.1-1.6l.6-.4M.1 2.7l-.7.5q-1.3 1-3.1.9l2.35-1.2q.8-.55 1.45-1.75V2.7M-2 .4q-1.35-.5-2.55-1.6l-.5-.45Q-3.7-.55-1-.6l-1 1m1.8-5 .45.5q.8 1 .95 2.2L.1-.6q.6-2-.3-4" fill="#fc0" transform="translate(5.2 4.6)"/></g><use height="12.3" width="12.3" xlink:href="#f" id="d"/><use height="8.7" width="10.4" xlink:href="#g" id="e"/><radialGradient cx="0" cy="0" gradientTransform="scale(.0084)" gradientUnits="userSpaceOnUse" id="h" r="819.2" spreadMethod="pad"><stop offset=".259" stop-color="#f4f400"/><stop offset="1" stop-color="red" stop-opacity="0"/></radialGradient><path d="M4.35-4.35q1.8 1.8 1.8 4.35t-1.8 4.35Q2.55 6.15 0 6.15t-4.35-1.8q-1.8-1.8-1.8-4.35t1.8-4.35q1.8-1.8 4.35-1.8t4.35 1.8" fill="url(#h)" fill-rule="evenodd" transform="translate(6.15 6.15)" id="f"/></defs></svg>

<?xml version="1.0" encoding="UTF-8" standalone="no"?>
<svg xmlns:xlink="http://www.w3.org/1999/xlink" height="92.9px" width="100.7px" xmlns="http://www.w3.org/2000/svg">
  <g transform="matrix(1.0, 0.0, 0.0, 1.0, 38.65, 49.75)">
    <use height="37.85" transform="matrix(1.0, 0.0, 0.0, 1.0, -11.45, -29.75)" width="22.55" xlink:href="#shape0"/>
    <use height="20.65" transform="matrix(1.0, 0.0, 0.0, 1.0, -9.75, -49.75)" width="20.35" xlink:href="#sprite0"/>
  </g>
  <defs>
    <g id="shape0" transform="matrix(1.0, 0.0, 0.0, 1.0, 11.45, 29.75)">
      <path d="M4.55 -5.3 L6.4 -1.25 Q-0.7 1.8 -7.85 1.5 L-5.4 -2.95 Q0.75 -2.15 4.55 -5.3 M7.9 1.7 L10.85 7.0 Q0.1 8.75 -11.2 6.9 L-9.85 4.85 Q-0.6 5.25 7.9 1.7 M-3.5 -6.8 L0.5 -14.1 3.25 -8.35 Q-0.9 -5.9 -3.5 -6.8" fill="#ffcc00" fill-rule="evenodd" stroke="none"/>
      <path d="M3.25 -8.35 L4.55 -5.3 Q0.75 -2.15 -5.4 -2.95 L-3.5 -6.8 Q-0.9 -5.9 3.25 -8.35 M6.4 -1.25 L7.9 1.7 Q-0.6 5.25 -9.85 4.85 L-7.85 1.5 Q-0.7 1.8 6.4 -1.25" fill="#ff9900" fill-rule="evenodd" stroke="none"/>
      <path d="M3.25 -8.35 L4.55 -5.3 6.4 -1.25 7.9 1.7 10.85 7.0 Q0.1 8.75 -11.2 6.9 L-9.85 4.85 -7.85 1.5 -5.4 -2.95 -3.5 -6.8 0.5 -14.1 3.25 -8.35" fill="none" stroke="#663300" stroke-linecap="round" stroke-linejoin="round" stroke-width="0.5"/>
      <path d="M0.5 -14.1 L0.5 -29.5" fill="none" stroke="#999999" stroke-linecap="round" stroke-linejoin="round" stroke-width="0.5"/>
    </g>
    <g id="sprite0" transform="matrix(1.0, 0.0, 0.0, 1.0, 10.15, 10.2)">
      <use height="20.65" transform="matrix(1.0, 0.0, 0.0, 1.0, -10.15, -10.2)" width="20.35" xlink:href="#shape1"/>
      <use height="12.3" transform="matrix(1.0, 0.0, 0.0, 1.0, -6.2, -6.05)" width="12.3" xlink:href="#sprite1"/>
      <use height="8.7" transform="matrix(1.0, 0.0, 0.0, 1.0, -5.25, -4.5)" width="10.4" xlink:href="#sprite2"/>
    </g>
    <g id="shape1" transform="matrix(1.0, 0.0, 0.0, 1.0, 10.15, 10.2)">
      <path d="M3.1 9.7 L2.7 9.85 0.5 10.15 0.05 10.15 -2.1 9.95 Q-6.3 0.1 -2.1 -9.95 -11.35 -0.8 -2.4 9.9 L-2.95 9.75 Q-5.35 9.05 -7.2 7.2 -10.15 4.2 -10.15 0.0 -10.15 -4.3 -7.2 -7.25 -4.25 -10.2 0.05 -10.2 L2.1 -10.0 Q11.0 -2.15 3.1 9.7" fill="#5176ad" fill-opacity="0.62352943" fill-rule="evenodd" stroke="none"/>
      <path d="M-2.1 9.95 L-1.9 10.45 -2.4 9.9 Q-11.35 -0.8 -2.1 -9.95 -6.3 0.1 -2.1 9.95" fill="#ffffff" fill-opacity="0.62352943" fill-rule="evenodd" stroke="none"/>
      <path d="M2.1 -10.0 Q5.0 -9.45 7.25 -7.25 10.2 -4.3 10.2 0.0 10.2 4.2 7.25 7.2 5.4 9.0 3.1 9.7 11.0 -2.15 2.1 -10.0" fill="#35506f" fill-opacity="0.62352943" fill-rule="evenodd" stroke="none"/>
    </g>
    <g id="sprite1" transform="matrix(1.0, 0.0, 0.0, 1.0, 6.15, 6.15)">
      <use height="12.3" transform="matrix(1.0, 0.0, 0.0, 1.0, -6.15, -6.15)" width="12.3" xlink:href="#shape2"/>
    </g>
    <g id="shape2" transform="matrix(1.0, 0.0, 0.0, 1.0, 6.15, 6.15)">
      <path d="M4.35 -4.35 Q6.15 -2.55 6.15 0.0 6.15 2.55 4.35 4.35 2.55 6.15 0.0 6.15 -2.55 6.15 -4.35 4.35 -6.15 2.55 -6.15 0.0 -6.15 -2.55 -4.35 -4.35 -2.55 -6.15 0.0 -6.15 2.55 -6.15 4.35 -4.35" fill="url(#gradient0)" fill-rule="evenodd" stroke="none"/>
    </g>
    <radialGradient cx="0" cy="0" gradientTransform="matrix(0.0084, 0.0, 0.0, 0.0084, 0.0, 0.0)" gradientUnits="userSpaceOnUse" id="gradient0" r="819.2" spreadMethod="pad">
      <stop offset="0.25882352941176473" stop-color="#f4f400"/>
      <stop offset="1.0" stop-color="#ff0000" stop-opacity="0.0"/>
    </radialGradient>
    <g id="sprite2" transform="matrix(1.0, 0.0, 0.0, 1.0, 5.2, 4.6)">
      <use height="8.7" transform="matrix(1.0, 0.0, 0.0, 1.0, -5.2, -4.6)" width="10.4" xlink:href="#shape3"/>
    </g>
    <g id="shape3" transform="matrix(1.0, 0.0, 0.0, 1.0, 5.2, 4.6)">
      <path d="M3.65 3.8 L3.6 3.8 Q1.55 3.8 0.1 2.7 L0.1 1.15 Q-0.55 2.35 -1.35 2.9 L-3.7 4.1 -3.75 4.1 Q-3.9 1.85 -2.0 0.4 L-1.0 -0.6 Q-3.7 -0.55 -5.05 -1.65 L-5.1 -1.75 -5.15 -1.8 -5.2 -1.8 -4.75 -2.15 -1.8 -1.55 -1.6 -1.95 -0.2 -4.6 Q0.7 -2.6 0.1 -0.6 L1.2 -1.9 5.2 -2.0 4.6 -1.6 Q3.15 -0.7 1.5 0.0 L2.1 0.85 3.65 3.8" fill="#ffff00" fill-rule="evenodd" stroke="none"/>
      <path d="M5.2 -2.0 Q4.7 -0.55 3.9 -0.2 L2.5 0.15 4.55 3.4 3.65 3.8 2.1 0.85 1.5 0.0 Q3.15 -0.7 4.6 -1.6 L5.2 -2.0 M0.1 2.7 L-0.6 3.2 Q-1.9 4.2 -3.7 4.1 L-1.35 2.9 Q-0.55 2.35 0.1 1.15 L0.1 2.7 M-2.0 0.4 Q-3.35 -0.1 -4.55 -1.2 L-5.05 -1.65 Q-3.7 -0.55 -1.0 -0.6 L-2.0 0.4 M-0.2 -4.6 L0.25 -4.1 Q1.05 -3.1 1.2 -1.9 L0.1 -0.6 Q0.7 -2.6 -0.2 -4.6" fill="#ffcc00" fill-rule="evenodd" stroke="none"/>
    </g>
  </defs>
</svg>
